T: Tarantella
M: 6/8
L: 1/8
K: Amin
|: cGc ece | g2 g gag | f2 f fgf | e3 e2 d | cGc ece | g3 g2 a | bag fed | c6 :||e2f ||: gf^g a2 g | f3 d2 e | fef g2 f | e3 e2 e | fed d2 d | edc c2 d | e2 d c2 B | A3 :||
